src/components/00-materials/images-raw/Magnifer Glass.svg

<svg width="96" height="96" viewBox="0 0 96 96" fill="none" xmlns="http://www.w3.org/2000/svg">
<path d="M41 65C54.8071 65 66 53.8071 66 40C66 26.1929 54.8071 15 41 15C27.1929 15 16 26.1929 16 40C16 53.8071 27.1929 65 41 65Z" stroke="#00008F" stroke-width="2" stroke-linecap="round" stroke-linejoin="round"/>
<path d="M41 59C51.4934 59 60 50.4934 60 40C60 29.5066 51.4934 21 41 21C30.5066 21 22 29.5066 22 40C22 50.4934 30.5066 59 41 59Z" stroke="#00008F" stroke-width="2" stroke-linecap="round" stroke-linejoin="round"/>
<path d="M35 40L41 34M54.78 61L71.38 78.25C71.8258 78.7638 72.3717 79.1812 72.9844 79.4767C73.5971 79.7722 74.2636 79.9396 74.9432 79.9686C75.6228 79.9976 76.3012 79.8877 76.9369 79.6455C77.5725 79.4033 78.152 79.0339 78.64 78.56C79.5638 77.5014 80.0475 76.1293 79.9917 74.7253C79.9359 73.3214 79.3449 71.992 78.34 71.01L61.81 53.86L54.78 61ZM35 48L49 34L35 48Z" stroke="#00008F" stroke-width="2" stroke-linecap="round" stroke-linejoin="round"/>
</svg>

<svg width="96" height="96" viewBox="0 0 96 96" fill="none" xmlns="http://www.w3.org/2000/svg"><path d="M41 65c13.807 0 25-11.193 25-25S54.807 15 41 15 16 26.193 16 40s11.193 25 25 25z" stroke="#00008F" stroke-width="2" stroke-linecap="round" stroke-linejoin="round"/><path d="M41 59c10.493 0 19-8.507 19-19s-8.507-19-19-19-19 8.507-19 19 8.507 19 19 19zM35 40l6-6m13.78 27l16.6 17.25a5 5 0 007.26.31 5.5 5.5 0 00-.3-7.55L61.81 53.86 54.78 61zM35 48l14-14-14 14z" stroke="#00008F" stroke-width="2" stroke-linecap="round" stroke-linejoin="round"/></svg>
